src/icons/outline/symbols/lock-unlock.svg

<svg width="24" height="24" viewBox="0 0 24 24" fill="none" xmlns="http://www.w3.org/2000/svg">
<g clip-path="url(#clip0_402_687)">
<path d="M11.5322 0.999756C13.1279 0.99979 14.626 1.60307 15.7549 2.70288C16.8621 3.78171 17.5029 5.28354 17.5029 6.81714V9.42847C17.5029 9.55671 17.4701 9.678 17.4131 9.78589H18.8262C20.0316 9.78595 21 10.7403 21 11.9148V20.8816C21 22.056 20.0316 22.9997 18.8262 22.9998H5.18457C3.97912 22.9998 3 22.0561 3 20.8816V11.9148C3 10.7403 3.97912 9.78589 5.18457 9.78589H15.9648C15.9078 9.678 15.8741 9.55672 15.874 9.42847V6.81714C15.874 5.70668 15.4077 4.61722 14.6045 3.82397C13.7795 3.03089 12.6936 2.5867 11.5322 2.58667C10.3708 2.58679 9.28488 3.03082 8.45996 3.82397C7.90661 4.36322 7.51572 5.03998 7.32031 5.78003C7.21171 6.20304 6.76622 6.46765 6.33203 6.35132C5.89832 6.24529 5.62699 5.81215 5.74609 5.3894C6.0066 4.37413 6.5498 3.44322 7.30957 2.70288C8.43845 1.60303 9.93663 0.999871 11.5322 0.999756ZM5.18457 11.2917C4.83427 11.2917 4.5459 11.5735 4.5459 11.9148V20.8816C4.5459 21.2229 4.83427 21.4939 5.18457 21.4939H18.8262C19.1764 21.4938 19.4541 21.2229 19.4541 20.8816V11.9148C19.4541 11.5735 19.1764 11.2918 18.8262 11.2917H5.18457ZM12.0605 14.2292C13.1986 14.2292 14.1211 15.1283 14.1211 16.2371C14.1209 17.3457 13.1985 18.2449 12.0605 18.2449C10.9226 18.2448 10.0002 17.3457 10 16.2371C10 15.1283 10.9225 14.2293 12.0605 14.2292Z" fill="#212121"/>
</g>
<defs>
<clipPath id="clip0_402_687">
<rect width="24" height="24" fill="white"/>
</clipPath>
</defs>
</svg>

<svg xmlns="http://www.w3.org/2000/svg" width="24" height="24" fill="none" viewBox="0 0 24 24"><g clip-path="url(#a)"><path fill="currentColor" d="M11.532 1c1.596 0 3.094.603 4.223 1.703a5.8 5.8 0 0 1 1.748 4.114v2.611c0 .129-.033.25-.09.358h1.413c1.206 0 2.174.954 2.174 2.129v8.967C21 22.056 20.032 23 18.826 23H5.185C3.979 23 3 22.056 3 20.882v-8.967c0-1.175.98-2.13 2.185-2.13h10.78a.8.8 0 0 1-.091-.357v-2.61c0-1.111-.466-2.2-1.27-2.994a4.4 4.4 0 0 0-3.072-1.237A4.4 4.4 0 0 0 8.46 3.824 4.24 4.24 0 0 0 7.32 5.78a.81.81 0 0 1-.988.571c-.434-.106-.705-.539-.586-.962A5.76 5.76 0 0 1 7.31 2.703 6 6 0 0 1 11.532 1M5.185 11.292a.634.634 0 0 0-.64.623v8.967c0 .34.29.612.64.612h13.641c.35 0 .628-.271.628-.612v-8.967a.625.625 0 0 0-.628-.623zm6.876 2.937c1.138 0 2.06.9 2.06 2.008s-.923 2.008-2.06 2.008-2.06-.9-2.061-2.008.922-2.008 2.06-2.008"/></g><defs><clipPath id="a"><path fill="currentColor" d="M0 0h24v24H0z"/></clipPath></defs></svg>
